X: 97
T:O Lamy Dear - West India
T:John Malchair's Third Collection of Tunes
%%VWML:Malchair-3619-p97
F:https://www.vwml.org/record/Malchair/3619/p97
F:www.vwml.org/topics/historic-dance-and-tune-books/Malchair
Z:Peter Kanssen March 2020
M:2/4
L:1/8
K:D
f| e3c | A2f2 | g2ec | d3f | 
e3c | A2f2 | g2ec | d3 ||
z|a2af | g2ge | f2fd | e4 | 
a2af | g3b | agfe | d4 | 
aaaf | ggge | fffd | e2fg | 
aaaf | g3b | agfe | d2cd "^D.C"||
W: 
T:Aire de l'opera francoise
N:title as in MS
N:AKA twinkle twinkle little star or "Ah vous dirai-je, Maman"
T:John Malchair's Third Collection of Tunes
F:https://www.vwml.org/record/Malchair/3619/p97
F:www.vwml.org/topics/historic-dance-and-tune-books/Malchair
M:C
L:1/4
K:G
GGdd | e/f/g/e/ {e}d2 | ccBB | A/G/A/B/ | G2 ||
ddcc | BBA2 | ddcc |"^see page 3*" [N:*sic]BBA2 |
GGdd | e/f/g/e/ d2 | ccBB | A/G/A/B/ G2 || 
W:
T:Capt Gipson's whim
T:John Malchair's Third Collection of Tunes
F:https://www.vwml.org/record/Malchair/3619/p97
F:www.vwml.org/topics/historic-dance-and-tune-books/Malchair
M:2/4
L:1/8
K:G
d|B(B/c/) .B.B | d2 TcB | (AG)AB | (G/F/G/A/) Gc | 
B(B/c/) .B.B | d2 TcB | AGAB | G2G ||
B|(TAG)(AB) | c2Bd | cBAG | (A/G/A/B/) AB | 
(TAG)(AB) | c2Bd | cBAG | d2-d "^D.C"||
